src/lib/packages/icons/src/assets/line/envelope-shield.svg

<svg width="24" height="24" viewBox="0 0 24 24" fill="none" xmlns="http://www.w3.org/2000/svg">
<path d="M13 19.75H5C2.582 19.75 1.25 18.418 1.25 16V7C1.25 4.582 2.582 3.25 5 3.25H17C19.418 3.25 20.75 4.582 20.75 7V11C20.75 11.414 20.414 11.75 20 11.75C19.586 11.75 19.25 11.414 19.25 11V7C19.25 5.423 18.577 4.75 17 4.75H5C3.423 4.75 2.75 5.423 2.75 7V16C2.75 17.577 3.423 18.25 5 18.25H13C13.414 18.25 13.75 18.586 13.75 19C13.75 19.414 13.414 19.75 13 19.75ZM12.0291 12.179L16.9409 8.60699C17.2759 8.36399 17.35 7.89401 17.106 7.55901C16.863 7.22501 16.3951 7.149 16.0581 7.394L11.146 10.966C11.058 11.03 10.941 11.03 10.853 10.966L5.94092 7.394C5.60392 7.149 5.13607 7.22601 4.89307 7.55901C4.64907 7.89401 4.72311 8.36299 5.05811 8.60699L9.96997 12.18C10.278 12.404 10.639 12.515 10.999 12.515C11.359 12.515 11.7221 12.403 12.0291 12.179ZM19.2451 21.709C20.9391 21.123 22.75 19.608 22.75 17.111V15.116C22.75 14.774 22.519 14.476 22.188 14.39C20.69 14.002 19.993 13.67 19.353 13.335C19.135 13.222 18.8771 13.221 18.6631 13.333C18.0171 13.666 17.3101 14.001 15.7891 14.447C15.4701 14.541 15.25 14.834 15.25 15.167V17.111C15.25 19.608 17.0609 21.123 18.7549 21.709C18.8339 21.737 18.917 21.75 19 21.75C19.083 21.75 19.1661 21.736 19.2451 21.709ZM19.0039 14.84C19.6249 15.145 20.284 15.412 21.25 15.689V17.111C21.25 19.024 19.687 19.902 19 20.196C18.313 19.903 16.75 19.024 16.75 17.111V15.723C17.728 15.416 18.3749 15.148 19.0039 14.84Z" fill="currentColor"/>
</svg>

<svg xmlns="http://www.w3.org/2000/svg" width="24" height="24" fill="none"><path fill="currentColor" d="M13 19.75H5c-2.418 0-3.75-1.332-3.75-3.75V7c0-2.418 1.332-3.75 3.75-3.75h12c2.418 0 3.75 1.332 3.75 3.75v4a.75.75 0 0 1-1.5 0V7c0-1.577-.673-2.25-2.25-2.25H5c-1.577 0-2.25.673-2.25 2.25v9c0 1.577.673 2.25 2.25 2.25h8a.75.75 0 0 1 0 1.5Zm-.97-7.571 4.91-3.572a.75.75 0 1 0-.882-1.213l-4.912 3.572a.248.248 0 0 1-.293 0L5.941 7.394a.75.75 0 0 0-.883 1.213L9.97 12.18a1.747 1.747 0 0 0 2.06-.001Zm7.215 9.53c1.694-.586 3.505-2.101 3.505-4.598v-1.995a.75.75 0 0 0-.562-.726c-1.498-.388-2.195-.72-2.835-1.055a.747.747 0 0 0-.69-.002c-.646.333-1.353.668-2.874 1.114a.751.751 0 0 0-.539.72v1.944c0 2.497 1.81 4.012 3.505 4.598a.733.733 0 0 0 .49 0Zm-.241-6.869c.62.305 1.28.572 2.246.849v1.422c0 1.913-1.563 2.791-2.25 3.085-.687-.293-2.25-1.172-2.25-3.085v-1.388a15.102 15.102 0 0 0 2.254-.883Z"/></svg>
